X:1
T: Cran Hill
C:
R:Reel
Q: 232
K:D
M:4/4
L:1/8
|:dD DE FD FG|AB AF D2 cd|eE EF GA GF|Ee ed cA Bc|
dD DD FD FG|AB AF D2 ef|gf ed cA Bc|d2 f2 d2 de:|
|:fd cd Ad cd|fd cd A2 ef|ge ^de Be de|ge ^de A2 de|
fd cd Ad cd|fd cd A2 ef|gf ed cA Bc|d2 f2 d2:|
